img/pay2.svg

<svg width="31" height="13" viewBox="0 0 31 13" fill="none" xmlns="http://www.w3.org/2000/svg">
<path d="M5.09751 4.4196V6.33811H7.81221C7.75746 6.64395 7.64024 6.93585 7.46755 7.19636C7.29486 7.45687 7.07025 7.68065 6.80715 7.85431C6.35359 8.15895 5.77452 8.33243 5.09561 8.33243C3.78343 8.33243 2.67425 7.45294 2.27632 6.27579C2.06809 5.65648 2.06809 4.98821 2.27632 4.3689C2.67425 3.18478 3.78343 2.30529 5.09561 2.30529C5.45129 2.2988 5.80473 2.36159 6.13538 2.48998C6.46602 2.61837 6.76726 2.80981 7.02157 3.05316L8.46117 1.62904C7.55449 0.786324 6.34811 0.321935 5.09751 0.334222C4.16197 0.337734 3.24606 0.597016 2.45319 1.0828C1.66031 1.56858 1.02203 2.26152 0.610417 3.08339C0.25586 3.77795 0.0712891 4.54367 0.0712891 5.32002C0.0712891 6.09637 0.25586 6.86209 0.610417 7.55665V7.56363C1.02215 8.38502 1.66059 9.07732 2.45355 9.56225C3.24652 10.0472 4.16236 10.3054 5.09751 10.3077C6.45106 10.3077 7.59589 9.86444 8.42551 9.10262C9.37637 8.23708 9.91883 6.95622 9.91883 5.43257C9.91938 5.09326 9.89156 4.75447 9.83563 4.4196H5.09751ZM23.6112 4.23356C23.1296 3.7973 22.4735 3.57592 21.6434 3.57592C20.5756 3.57592 19.773 3.96381 19.2425 4.73214L20.2337 5.34886C20.5966 4.82175 21.092 4.5582 21.7199 4.5582C22.1197 4.55915 22.505 4.70477 22.8015 4.96701C22.946 5.08978 23.062 5.24145 23.1414 5.41179C23.2209 5.58213 23.2621 5.76716 23.2622 5.95441V6.21067C22.8296 5.97487 22.2852 5.85023 21.6153 5.85023C20.8337 5.85023 20.2057 6.03068 19.7379 6.39764C19.27 6.7646 19.0333 7.24923 19.0333 7.86547C19.026 8.14088 19.0817 8.41441 19.1963 8.66605C19.311 8.91768 19.4817 9.14105 19.696 9.31982C20.1358 9.70771 20.6944 9.90165 21.35 9.90165C22.1245 9.90165 22.7388 9.56213 23.2042 8.88356H23.2517V9.70771H24.3267V6.04743C24.33 5.2777 24.0928 4.66796 23.6112 4.23356ZM22.6969 8.38684C22.532 8.55095 22.3355 8.68135 22.1186 8.77046C21.9017 8.85956 21.6689 8.9056 21.4337 8.90589C21.1175 8.91104 20.8094 8.80826 20.5622 8.6152C20.4469 8.53067 20.3535 8.42088 20.2893 8.29465C20.2252 8.16841 20.1921 8.02923 20.1928 7.88826C20.1928 7.5627 20.3459 7.29248 20.6464 7.07807C20.9469 6.86366 21.3372 6.75251 21.7908 6.75251C22.4164 6.74507 22.9061 6.88459 23.2551 7.16086C23.2551 7.632 23.0668 8.04035 22.6969 8.38684ZM18.2445 1.78252C17.9922 1.53579 17.6916 1.34145 17.3606 1.21118C17.0297 1.08091 16.6752 1.01739 16.3186 1.02442H13.3391V9.70957H14.4625V6.1916H16.3167C17.0774 6.1916 17.7192 5.94231 18.2426 5.45071C18.2845 5.40932 18.3263 5.36746 18.3686 5.32607C18.8267 4.83697 19.0704 4.19154 19.0472 3.52856C19.024 2.86557 18.7358 2.23796 18.2445 1.78066V1.78252ZM17.4563 4.6768C17.3147 4.82468 17.1424 4.94134 16.9511 5.01897C16.7597 5.0966 16.5537 5.13343 16.3466 5.12701H14.4625V2.09413H16.3466C16.7487 2.09271 17.135 2.24705 17.4211 2.52341C17.7122 2.80697 17.8787 3.1904 17.8852 3.59219C17.8918 3.99397 17.7379 4.38242 17.4563 4.67494V4.6768ZM29.2773 3.76847L27.5401 8.03337H27.5187L25.7397 3.76847H24.5183L26.9805 9.32866L25.5852 12.3201H26.7428L30.4987 3.76847H29.2773Z" fill="white"/>
</svg>

<svg xmlns="http://www.w3.org/2000/svg" width="31" height="13" fill="none"><path fill="#fff" d="M5.098 4.42v1.918h2.714a2.3 2.3 0 0 1-.344.858c-.173.26-.398.485-.66.658-.454.305-1.033.478-1.712.478-1.313 0-2.422-.88-2.82-2.056a3 3 0 0 1 0-1.907c.398-1.184 1.507-2.064 2.82-2.064.355-.006.709.057 1.04.185.33.128.631.32.886.563l1.44-1.424A4.87 4.87 0 0 0 5.097.334a5.1 5.1 0 0 0-2.645.749 4.95 4.95 0 0 0-1.843 2 4.92 4.92 0 0 0 0 4.474v.007a4.94 4.94 0 0 0 1.844 1.998 5.1 5.1 0 0 0 2.644.746c1.353 0 2.498-.444 3.328-1.205.95-.866 1.493-2.147 1.493-3.67q0-.511-.083-1.013zm18.513-.186q-.722-.657-1.968-.658c-1.067 0-1.87.388-2.4 1.156l.99.617q.546-.79 1.487-.79c.4 0 .785.146 1.082.408.144.123.26.274.34.445.079.17.12.355.12.542v.257c-.432-.236-.977-.36-1.647-.36-.781 0-1.41.18-1.877.547s-.705.851-.705 1.467c-.007.276.049.55.163.801.115.252.286.475.5.654.44.388.998.582 1.654.582.774 0 1.389-.34 1.854-1.018h.048v.824h1.075v-3.66c.003-.77-.234-1.38-.716-1.814m-.914 4.153a1.809 1.809 0 0 1-1.263.519 1.38 1.38 0 0 1-.872-.29.888.888 0 0 1-.37-.727q.002-.49.454-.81c.3-.215.691-.326 1.145-.326.625-.008 1.115.132 1.464.408q-.002.707-.558 1.226m-4.453-6.604a2.7 2.7 0 0 0-.883-.572 2.7 2.7 0 0 0-1.042-.187h-2.98V9.71h1.124V6.192h1.854c.76 0 1.402-.25 1.926-.741q.062-.063.126-.125a2.5 2.5 0 0 0 .678-1.797 2.5 2.5 0 0 0-.803-1.748zm-.788 2.894a1.486 1.486 0 0 1-1.11.45h-1.883V2.094h1.884a1.526 1.526 0 0 1 1.539 1.498c.006.402-.148.79-.43 1.083zm11.821-.909L27.54 8.033h-.021l-1.78-4.265h-1.22l2.462 5.56-1.396 2.992h1.158l3.756-8.552z"/></svg>
